svgs/sharp-light/bell-exclamation.svg

<svg xmlns="http://www.w3.org/2000/svg" viewBox="0 0 448 512"><!--! Font Awesome Pro 6.6.0 by @fontawesome - https://fontawesome.com License - https://fontawesome.com/license (Commercial License) Copyright 2024 Fonticons, Inc. --><path d="M208 0l32 0 0 32.8c80.9 8 144 76.2 144 159.2l0 97.4 59.3 59.3 4.7 4.7 0 6.6 0 40 0 16-16 0L16 416 0 416l0-16 0-40 0-6.6 4.7-4.7L64 289.4 64 192c0-83 63.1-151.2 144-159.2L208 0zm16 64C153.3 64 96 121.3 96 192l0 104 0 6.6-4.7 4.7L32 366.6 32 384l384 0 0-17.4-59.3-59.3-4.7-4.7 0-6.6 0-104c0-70.7-57.3-128-128-128zM160 448l32 0c0 17.7 14.3 32 32 32s32-14.3 32-32l32 0c0 35.3-28.7 64-64 64s-64-28.7-64-64zm80-336l0 16 0 112 0 16-32 0 0-16 0-112 0-16 32 0zm8 184l0 48-48 0 0-48 48 0z"/></svg>

<svg xmlns="http://www.w3.org/2000/svg" viewBox="0 0 448 512"><!--! Font Awesome Pro 6.4.0 by @fontawesome - https://fontawesome.com License - https://fontawesome.com/license (Commercial License) Copyright 2023 Fonticons, Inc. --><path d="M208 0h32V32.8c80.9 8 144 76.2 144 159.2v97.4l59.3 59.3 4.7 4.7V360v40 16H432 16 0V400 360v-6.6l4.7-4.7L64 289.4V192c0-83 63.1-151.2 144-159.2V0zm16 64C153.3 64 96 121.3 96 192V296v6.6l-4.7 4.7L32 366.6V384H416V366.6l-59.3-59.3-4.7-4.7V296 192c0-70.7-57.3-128-128-128zM160 448h32c0 17.7 14.3 32 32 32s32-14.3 32-32h32c0 35.3-28.7 64-64 64s-64-28.7-64-64zm80-336v16V240v16H208V240 128 112h32zm8 184v48H200V296h48z"/></svg>
